X:1
T:Gwerz Penmarc'h
C:Traditionnel Bretagne, fichier abc : Bernard Loffet
L:1/8
Q:166
M:3/8
K:C
 z2^c | [^c2A,2A,2]c | [B2G,2G,2]B | [B2G,2G,2]B | [^c3A,3A,3] | [A,3A,3] | [B2G,2G,2]B | \
 [B2G,2G,2]B | [c2F,2F,2]A | [B2D,2D,2]c | [B3E,3E,3] | [E,3E,3] | [A2A,2A,2]B | [c2A,2A,2]^c | \
 [B3G,3G,3] | [B3G,3G,3] | [B2E,2E,2]B | [B2E,2E,2]B | [A3A,3A,3] | [A,3A,3] | \
Z:Created with TablEdit http://www.tabledit.com/ by Bernard Loffet
